dist/img/bg-consultation.svg

<svg width="121" height="120" viewBox="0 0 121 120" fill="none" xmlns="http://www.w3.org/2000/svg">
<path fill-rule="evenodd" clip-rule="evenodd" d="M-7 56.25C-7 25.232 21.5975 0 56.75 0C91.9025 0 121 25.232 121 56.25C121 87.268 91.9025 112.5 56.75 112.5C48.4772 112.5 40.4645 111.134 32.8913 108.432C25.2375 115.814 14.936 120 4.25 120C0.909752 120 -0.753502 115.951 1.5985 113.599C7.2235 107.974 9.4905 99.8145 7.62275 92.113C-1.8145 82.0495 -7 69.353 -7 56.25ZM51.9335 61.1521C50.4724 63.2828 49.7418 65.9919 49.7418 69.2794H61.3392C61.3392 67.0877 61.8871 65.2005 62.9829 63.6176C64.1396 62.0348 65.8747 60.2084 68.188 58.1386C70.0753 56.434 71.5972 54.9424 72.7539 53.664C73.9106 52.3247 74.8847 50.7114 75.6761 48.8242C76.5284 46.9369 76.9546 44.7453 76.9546 42.2493C76.9546 37.0746 74.9151 33.0262 70.8363 30.104C66.8183 27.1209 61.4001 25.6294 54.5817 25.6294C48.9809 25.6294 44.1106 26.6035 39.9708 28.5516C35.8311 30.4388 32.4523 33.1784 29.8345 36.7702L38.6924 42.5232C42.0407 37.8356 47.0023 35.4917 53.5772 35.4917C57.0473 35.4917 59.8172 36.2832 61.8871 37.866C63.957 39.4489 64.9919 41.5187 64.9919 44.0756C64.9919 45.902 64.444 47.5457 63.3482 49.0068C62.3133 50.407 60.7 52.0812 58.5084 54.0293C55.6471 56.5862 53.4554 58.9604 51.9335 61.1521ZM50.2897 89.0953C51.6899 90.4346 53.4554 91.1043 55.5862 91.1043C57.656 91.1043 59.3606 90.4346 60.7 89.0953C62.1002 87.6951 62.8003 85.9905 62.8003 83.9815C62.8003 81.9725 62.1002 80.2984 60.7 78.959C59.3606 77.6197 57.656 76.9501 55.5862 76.9501C53.4554 76.9501 51.6899 77.6197 50.2897 78.959C48.9504 80.2984 48.2808 81.9725 48.2808 83.9815C48.2808 85.9905 48.9504 87.6951 50.2897 89.0953Z" fill="white"/>
</svg>

<svg width="121" height="120" fill="none" xmlns="http://www.w3.org/2000/svg"><path fill-rule="evenodd" clip-rule="evenodd" d="M-7 56.25C-7 25.232 21.598 0 56.75 0 91.903 0 121 25.232 121 56.25S91.903 112.5 56.75 112.5c-8.273 0-16.285-1.366-23.859-4.068A41.35 41.35 0 0 1 4.25 120c-3.34 0-5.004-4.049-2.651-6.401a22.805 22.805 0 0 0 6.024-21.486C-1.815 82.049-7 69.353-7 56.25zm58.934 4.902c-1.462 2.13-2.192 4.84-2.192 8.127h11.597c0-2.191.548-4.078 1.644-5.661 1.157-1.583 2.892-3.41 5.205-5.48 1.887-1.704 3.41-3.196 4.566-4.474 1.157-1.34 2.13-2.953 2.922-4.84.852-1.887 1.279-4.079 1.279-6.575 0-5.174-2.04-9.223-6.119-12.145-4.018-2.983-9.436-4.475-16.254-4.475-5.601 0-10.471.974-14.611 2.923-4.14 1.887-7.519 4.626-10.136 8.218l8.857 5.753c3.349-4.687 8.31-7.031 14.885-7.031 3.47 0 6.24.791 8.31 2.374 2.07 1.583 3.105 3.653 3.105 6.21 0 1.826-.548 3.47-1.644 4.93-1.035 1.401-2.648 3.075-4.84 5.023-2.86 2.557-5.053 4.931-6.575 7.123zM50.29 89.095c1.4 1.34 3.165 2.01 5.296 2.01 2.07 0 3.775-.67 5.114-2.01 1.4-1.4 2.1-3.105 2.1-5.114 0-2.008-.7-3.683-2.1-5.022-1.34-1.34-3.044-2.009-5.114-2.009-2.13 0-3.896.67-5.296 2.009-1.34 1.34-2.01 3.013-2.01 5.022 0 2.01.67 3.714 2.01 5.114z" fill="#fff"/></svg>
